src/components/common/icons/fill-in.svg

<svg height="52" viewBox="0 0 42 52" width="42" xmlns="http://www.w3.org/2000/svg"><g fill="#010202" fill-rule="evenodd"><path d="m13.8015667 36.7339375-2.7934074-2.85025 26.5548888-27.096875 2.7934075 2.85025z"/><path d="m30.9779963.06825-26.55488889 27.096875 2.7934074 2.85025 26.55648149-27.09525z"/><path d="m.98151482 40.2377625 7.79892592-2.132-5.70944444-5.824z"/><path d="m41.7948852 51.484225c-3.619963 0-5.461-.433875-7.2399259-.8515-1.6355926-.39-3.182-.754-6.3608149-.754-3.1788148 0-4.7236296.364-6.3608148.752375-1.7773333.41925-3.6183703.853125-7.2447037.853125-3.6231481 0-5.46577775-.433875-7.24629627-.853125-1.63718519-.388375-3.18359259-.752375-6.36081481-.752375v-4.0105c3.62633333 0 5.46737037.4355 7.24629629.85475 1.63718519.388375 3.18359259.752375 6.36081479.752375s4.7220371-.364 6.3576297-.752375c1.7805185-.41925 3.6215555-.85475 7.2478888-.85475 3.627926 0 5.468963.4355 7.2494815.85475 1.634.388375 3.1772222.752375 6.3512593.752375z"/></g></svg>

<?xml version="1.0" encoding="UTF-8"?>
<svg width="42px" height="52px" viewBox="0 0 42 52" version="1.1" xmlns="http://www.w3.org/2000/svg" xmlns:xlink="http://www.w3.org/1999/xlink">
    <!-- Generator: Sketch 52.5 (67469) - http://www.bohemiancoding.com/sketch -->
    <title>Icons/.fill-in</title>
    <desc>Created with Sketch.</desc>
    <g id="Vapaaehtoisalusta-Layouts" stroke="none" stroke-width="1" fill="none" fill-rule="evenodd">
        <g id="HKI-Ikonit" transform="translate(-748.000000, -379.000000)" fill="#010202">
            <g id="Icons/.fill-in" transform="translate(748.000000, 379.000000)">
                <polygon id="Fill-47" points="13.8015667 36.7339375 11.0081593 33.8836875 37.5630481 6.7868125 40.3564556 9.6370625"></polygon>
                <polygon id="Fill-48" points="30.9779963 0.06825 4.42310741 27.165125 7.21651481 30.015375 33.7729963 2.920125"></polygon>
                <polygon id="Fill-49" points="0.981514815 40.2377625 8.78044074 38.1057625 3.0709963 32.2817625"></polygon>
                <path d="M41.7948852,51.484225 C38.1749222,51.484225 36.3338852,51.05035 34.5549593,50.632725 C32.9193667,50.242725 31.3729593,49.878725 28.1941444,49.878725 C25.0153296,49.878725 23.4705148,50.242725 21.8333296,50.6311 C20.0559963,51.05035 18.2149593,51.484225 14.5886259,51.484225 C10.9654778,51.484225 9.12284815,51.05035 7.34232963,50.6311 C5.70514444,50.242725 4.15873704,49.878725 0.981514815,49.878725 L0.981514815,45.868225 C4.60784815,45.868225 6.44888519,46.303725 8.22781111,46.722975 C9.8649963,47.11135 11.4114037,47.47535 14.5886259,47.47535 C17.7658481,47.47535 19.310663,47.11135 20.9462556,46.722975 C22.7267741,46.303725 24.5678111,45.868225 28.1941444,45.868225 C31.8220704,45.868225 33.6631074,46.303725 35.4436259,46.722975 C37.0776259,47.11135 38.6208481,47.47535 41.7948852,47.47535 L41.7948852,51.484225 Z" id="Fill-50"></path>
            </g>
        </g>
    </g>
</svg>
